images/icons/gplus.svg

<?xml version="1.0" encoding="UTF-8" standalone="no"?>
<svg width="40px" height="40px" viewBox="0 0 40 40" version="1.1" xmlns="http://www.w3.org/2000/svg" xmlns:xlink="http://www.w3.org/1999/xlink" xmlns:sketch="http://www.bohemiancoding.com/sketch/ns">
    <!-- Generator: Sketch 3.2.2 (9983) - http://www.bohemiancoding.com/sketch -->
    <title>Group</title>
    <desc>Created with Sketch.</desc>
    <defs></defs>
    <g id="Page-1" stroke="none" stroke-width="1" sketch:type="MSPage">
        <g id="gplus" sketch:type="MSLayerGroup">
            <g id="Group" sketch:type="MSShapeGroup" fill="currentColor">
                <path d="M21.1103906,22.853125 L19.1828906,21.3953906 C18.5948438,20.9205469 17.7920313,20.2946094 17.7920313,19.1502344 C17.7920313,17.9991406 18.5947656,17.2679688 19.2941406,16.5909375 C21.5394531,14.86875 23.7811719,13.0376562 23.7811719,9.17765625 C23.7811719,5.20796875 21.2184375,3.11984375 19.9896875,2.12804687 L23.3042187,2.12804687 L26.7853125,0 L16.2413281,0 C13.3482031,0 9.17921875,0.666484375 6.12734375,3.11984375 C3.82398438,5.05390625 2.703125,7.71757812 2.703125,10.1153906 C2.703125,14.1684375 5.89953125,18.3138281 11.5621094,18.3138281 C12.0978125,18.3138281 12.6845312,18.2635156 13.2742969,18.209375 C13.0101562,18.8375781 12.743125,19.3605469 12.743125,20.2471875 C12.743125,21.8476562 13.6138281,22.8395313 14.3410156,23.7817969 C11.9319531,23.9410937 7.43257813,24.2025781 4.11804687,26.18625 C0.959453125,28.0136719 0,30.6735938 0,32.5521094 C0,36.4173438 3.72742187,40 11.5226563,40 C20.7260156,40 25.598125,35.0407031 25.598125,30.135625 C25.6104687,26.5544531 23.4507812,24.7675781 21.1257813,22.8560156 L21.1103906,22.8560156 L21.1103906,22.853125 L21.1103906,22.853125 Z M14.1007812,16.8478906 C9.49734375,16.8478906 7.41242187,11.0538281 7.41242187,7.55757812 C7.41242187,6.1975 7.67789062,4.79234375 8.58890625,3.693125 C9.4471875,2.64867187 10.9422656,1.97007812 12.3378125,1.97007812 C16.7755469,1.97007812 19.0664844,7.81453125 19.0664844,11.5752344 C19.0664844,12.5175 18.9598437,14.1817969 17.7302344,15.3885937 C16.88125,16.2346875 15.4569531,16.8478906 14.1022656,16.8523437 L14.1022656,16.8478125 L14.1007812,16.8478125 L14.1007812,16.8478906 Z M14.1525,37.8660937 C8.42890625,37.8660937 4.73632812,35.2000781 4.73632812,31.4911719 C4.73632812,27.7852344 8.158125,26.531875 9.3375,26.1171875 C11.58375,25.3807812 14.4753125,25.2785937 14.9576562,25.2785937 C15.491875,25.2785937 15.7797656,25.2785937 16.16875,25.33125 C20.2375,28.1595312 22.0275,29.5736719 22.0275,32.2245312 C22.0242969,35.4134375 19.2825781,37.8630469 14.1510937,37.8389844 L14.1525,37.8660937 L14.1525,37.8660937 Z" id="Shape"></path>
                <path d="M34.6276563,16.7539062 L34.6276563,11.5692969 L31.9630469,11.5692969 L31.9630469,16.7539062 L26.6417188,16.7539062 L26.6417188,19.3914062 L31.9630469,19.3914062 L31.9630469,24.6233594 L34.6276563,24.6233594 L34.6276563,19.3914062 L40,19.3914062 L40,16.7539062 L34.6276563,16.7539062 Z" id="Shape"></path>
            </g>
        </g>
    </g>
</svg>

<svg width="40" height="40" viewBox="0 0 40 40" xmlns="http://www.w3.org/2000/svg"><title>Group</title><g fill="currentColor"><path d="M21.11 22.853l-1.927-1.458c-.588-.474-1.39-1.1-1.39-2.245 0-1.15.802-1.882 1.5-2.56 2.246-1.72 4.488-3.552 4.488-7.412 0-3.97-2.562-6.058-3.79-7.05h3.314L26.784 0H16.242C13.35 0 9.18.666 6.128 3.12c-2.303 1.934-3.424 4.598-3.424 6.995 0 4.053 3.197 8.2 8.86 8.2.535 0 1.122-.05 1.71-.106-.263.628-.53 1.15-.53 2.037 0 1.6.87 2.593 1.598 3.535-2.408.16-6.907.42-10.222 2.404C.958 28.014 0 30.674 0 32.552 0 36.417 3.727 40 11.523 40c9.203 0 14.075-4.96 14.075-9.864.012-3.582-2.147-5.368-4.472-7.28h-.016v-.003zm-7.01-6.005c-4.603 0-6.688-5.794-6.688-9.29 0-1.36.266-2.766 1.177-3.865.857-1.044 2.352-1.723 3.748-1.723 4.438 0 6.728 5.845 6.728 9.605 0 .943-.106 2.607-1.336 3.814-.85.845-2.273 1.458-3.628 1.462v-.004zm.053 21.018c-5.724 0-9.417-2.666-9.417-6.375 0-3.705 3.422-4.958 4.602-5.373 2.246-.736 5.137-.838 5.62-.838.534 0 .822 0 1.21.05 4.07 2.83 5.86 4.244 5.86 6.895-.004 3.188-2.745 5.638-7.877 5.614l.002.026z" id="Shape"/><path d="M34.628 16.754V11.57h-2.665v5.184h-5.32v2.637h5.32v5.233h2.665V19.39H40v-2.636h-5.372z"/></g></svg>
